Yaru++/mimetypes/scalable/text-x-log.svg

<svg height="256" viewBox="0 0 67.73 67.73" width="256" xmlns="http://www.w3.org/2000/svg" xmlns:xlink="http://www.w3.org/1999/xlink"><linearGradient id="a" gradientTransform="matrix(0 -.11988342 -.11987999 0 67.013156 62.749399)" gradientUnits="userSpaceOnUse" x1="494.34482" x2="4.413793" y1="386.29544" y2="169.65668"><stop offset="0" stop-color="#e8e8e8"/><stop offset="1" stop-color="#f5f5f5"/></linearGradient><linearGradient id="b" gradientUnits="userSpaceOnUse" x1="88" x2="488" y1="88" y2="488"><stop offset="0" stop-opacity=".588235"/><stop offset=".88" stop-opacity="0"/><stop offset="1"/></linearGradient><filter id="c" color-interpolation-filters="sRGB" height="1.087725" width="1.105998" x="-.052999" y="-.043863"><feGaussianBlur stdDeviation="8.4801079"/></filter><filter id="d" color-interpolation-filters="sRGB" height="1.021931" width="1.0265" x="-.01325" y="-.010966"><feGaussianBlur stdDeviation="2.120027"/></filter><path d="m189.84323 74c-70.59344 0-78.18921 7.250835-77.84323 77.98706v146.01294 146.01294c-.34598 70.73623 7.24979 77.98706 77.84323 77.98706h196.31354c70.59344 0 76.00668-7.27384 77.84323-77.98706v-146.01294-146.01294c0-70.737067-7.24979-77.98706-77.84323-77.98706z" filter="url(#d)" opacity=".1" transform="matrix(.13228516 0 0 .13228516 -4.409451 -6.038882)"/><path d="m189.84323 74c-70.59344 0-78.18921 7.250835-77.84323 77.98706v146.01294 146.01294c-.34598 70.73623 7.24979 77.98706 77.84323 77.98706h196.31354c70.59344 0 77.84323-7.24999 77.84323-77.98706v-146.01294-146.01294c0-70.737067-7.24979-77.98706-77.84323-77.98706z" fill="url(#b)" filter="url(#c)" opacity=".3" transform="matrix(.13228516 0 0 .13228516 -4.409451 -6.038882)"/><path d="m20.410313 2.9565094c-9.550674 0-10.5783158.976306-10.5315075 10.5007546v19.660261 19.660262c-.046808 9.524449.9808335 10.500753 10.5315075 10.500753h26.559505c9.550673 0 10.531507-.976193 10.531507-10.500753v-19.660262-19.660261c0-9.5245616-.980834-10.5007546-10.531507-10.5007546z" opacity=".1"/><path d="m46.671928 3.4856504c9.338467 0 10.343273.959177 10.297505 10.3165306v19.315344 19.315344c.04577 9.357355-.959038 10.316531-10.297505 10.316531h-25.969365c-9.338464 0-10.297505-.959068-10.297505-10.316531v-19.315344-19.315344c0-9.3574646.959041-10.3165306 10.297505-10.3165306z" fill="url(#a)"/><path d="m56.969311 48.993294-13.756106 13.756106h3.458535c9.338467 0 10.343339-.959337 10.297571-10.316692z" fill="#fff"/><path d="m20.70406 3.4856504c-9.338466 0-10.343342.959339-10.297574 10.3166916v.529141c-.045768-9.3573526.959108-10.3166926 10.297574-10.3166926h25.969228c9.338467 0 10.297574.959228 10.297574 10.3166926v-.529141c0-9.3574636-.959107-10.3166916-10.297574-10.3166916z" fill="#fff" opacity=".3"/><path d="m20.705489 62.7494c-9.338468 0-10.343344-.95934-10.297576-10.316692v-.529141c-.04577 9.357352.959108 10.316692 10.297576 10.316692h25.969227c9.338467 0 10.297574-.959229 10.297574-10.316692v.529141c0 9.357463-.959107 10.316692-10.297574 10.316692z" opacity=".2"/><path d="m33.688674 3.4856504v59.2637496h12.983066c9.338467 0 10.343339-.959337 10.297571-10.316692v-19.315183-19.315183c.045768-9.3573526-.959104-10.3166916-10.297571-10.3166916z" fill="#fff" opacity=".2"/><path d="m10.404936 33.117525v19.315183c0 9.357463.959109 10.316692 10.297574 10.316692h25.96923c9.338467 0 10.343339-.959337 10.297571-10.316692v-19.315183z" fill="#fff" opacity=".2"/><path d="m10.931493 37.87979h3.708118l6.349688-16.932499 8.46625 26.457031 5.291406-15.874219 2.116563 6.349687 2.116562 5.820547 2.116563-5.820547h15.343028" fill="none" stroke="#5d5d5d" stroke-linecap="square" stroke-width="1.058281"/></svg>

<?xml version="1.0" encoding="UTF-8" standalone="no"?>
<svg
   xmlns:dc="http://purl.org/dc/elements/1.1/"
   xmlns:cc="http://creativecommons.org/ns#"
   xmlns:rdf="http://www.w3.org/1999/02/22-rdf-syntax-ns#"
   xmlns:svg="http://www.w3.org/2000/svg"
   xmlns="http://www.w3.org/2000/svg"
   xmlns:xlink="http://www.w3.org/1999/xlink"
   xmlns:sodipodi="http://sodipodi.sourceforge.net/DTD/sodipodi-0.dtd"
   xmlns:inkscape="http://www.inkscape.org/namespaces/inkscape"
   height="256"
   viewBox="0 0 67.73 67.73"
   width="256"
   version="1.1"
   id="svg42"
   sodipodi:docname="6.svg"
   inkscape:version="0.92.5 (2060ec1f9f, 2020-04-08)">
  <metadata
     id="metadata48">
    <rdf:RDF>
      <cc:Work
         rdf:about="">
        <dc:format>image/svg+xml</dc:format>
        <dc:type
           rdf:resource="http://purl.org/dc/dcmitype/StillImage" />
        <dc:title></dc:title>
      </cc:Work>
    </rdf:RDF>
  </metadata>
  <defs
     id="defs46">
    <linearGradient
       gradientUnits="userSpaceOnUse"
       y2="169.65668"
       x2="4.4137931"
       y1="386.29544"
       x1="494.34482"
       id="linearGradient4226"
       xlink:href="#linearGradient4245"
       inkscape:collect="always"
       gradientTransform="matrix(0,-0.11988342,-0.11987999,0,67.013156,62.749399)" />
    <linearGradient
       id="linearGradient4245"
       inkscape:collect="always">
      <stop
         id="stop4241"
         offset="0"
         style="stop-color:#e8e8e8;stop-opacity:1" />
      <stop
         id="stop4243"
         offset="1"
         style="stop-color:#f5f5f5;stop-opacity:1" />
    </linearGradient>
    <linearGradient
       inkscape:collect="always"
       xlink:href="#linearGradient4360"
       id="linearGradient4358"
       x1="88"
       y1="88"
       x2="488"
       y2="488"
       gradientUnits="userSpaceOnUse" />
    <linearGradient
       id="linearGradient4360"
       inkscape:collect="always">
      <stop
         id="stop4362"
         offset="0"
         style="stop-color:#000000;stop-opacity:0.58823532" />
      <stop
         style="stop-color:#000000;stop-opacity:0"
         offset="0.88"
         id="stop4364" />
      <stop
         id="stop4366"
         offset="1"
         style="stop-color:#000000;stop-opacity:1" />
    </linearGradient>
    <filter
       inkscape:collect="always"
       style="color-interpolation-filters:sRGB"
       id="filter4380"
       x="-0.052999184"
       width="1.1059984"
       y="-0.043862626"
       height="1.0877253">
      <feGaussianBlur
         inkscape:collect="always"
         stdDeviation="8.4801079"
         id="feGaussianBlur4382" />
    </filter>
    <filter
       inkscape:collect="always"
       style="color-interpolation-filters:sRGB"
       id="filter4346"
       x="-0.013249796"
       width="1.0264996"
       y="-0.010965657"
       height="1.0219313">
      <feGaussianBlur
         inkscape:collect="always"
         stdDeviation="2.120027"
         id="feGaussianBlur4348" />
    </filter>
  </defs>
  <sodipodi:namedview
     pagecolor="#ffffff"
     bordercolor="#666666"
     borderopacity="1"
     objecttolerance="10"
     gridtolerance="10"
     guidetolerance="10"
     inkscape:pageopacity="0"
     inkscape:pageshadow="2"
     inkscape:window-width="1920"
     inkscape:window-height="1016"
     id="namedview44"
     showgrid="false"
     inkscape:zoom="3.4639785"
     inkscape:cx="127.33085"
     inkscape:cy="129.82524"
     inkscape:window-x="0"
     inkscape:window-y="27"
     inkscape:window-maximized="1"
     inkscape:current-layer="svg42" />
  <linearGradient
     id="a"
     gradientTransform="matrix(0 -.11988342 .11987999 0 .362762 292.01605)"
     gradientUnits="userSpaceOnUse"
     x1="529.65515"
     x2="-35.310345"
     y1="401.58368"
     y2="119.09284">
    <stop
       offset="0"
       stop-color="#f2f2f2"
       id="stop2" />
    <stop
       offset="1"
       stop-color="#f9f9f9"
       id="stop4" />
  </linearGradient>
  <linearGradient
     id="b"
     gradientUnits="userSpaceOnUse"
     x1="88"
     x2="488"
     y1="88"
     y2="488">
    <stop
       offset="0"
       stop-opacity=".588235"
       id="stop7" />
    <stop
       offset=".88"
       stop-opacity="0"
       id="stop9" />
    <stop
       offset="1"
       id="stop11" />
  </linearGradient>
  <filter
     id="c"
     color-interpolation-filters="sRGB"
     height="1.087725"
     width="1.105998"
     x="-.052999"
     y="-.043863">
    <feGaussianBlur
       stdDeviation="8.4801079"
       id="feGaussianBlur14" />
  </filter>
  <filter
     id="d"
     color-interpolation-filters="sRGB"
     height="1.021931"
     width="1.0265"
     x="-.01325"
     y="-.010966">
    <feGaussianBlur
       stdDeviation="2.120027"
       id="feGaussianBlur17" />
  </filter>
  <path
     style="color:#000000;display:inline;overflow:visible;visibility:visible;opacity:0.1;fill:#000000;fill-opacity:1;fill-rule:nonzero;stroke:none;stroke-width:2;marker:none;filter:url(#filter4346);enable-background:accumulate"
     d="M 189.84323,74 C 119.24979,74 111.65402,81.250835 112,151.98706 V 298 444.01294 C 111.65402,514.74917 119.24979,522 189.84323,522 H 386.15677 C 456.75021,522 462.16345,514.72616 464,444.01294 V 298 151.98706 C 464,81.249993 456.75021,74 386.15677,74 Z"
     id="rect4158-9"
     inkscape:connector-curvature="0"
     sodipodi:nodetypes="scccssscsss"
     transform="matrix(0.13228516,0,0,0.13228516,-4.4094514,-6.0388816)" />
  <path
     sodipodi:nodetypes="scccssscsss"
     inkscape:connector-curvature="0"
     id="path4350"
     d="M 189.84323,74 C 119.24979,74 111.65402,81.250835 112,151.98706 V 298 444.01294 C 111.65402,514.74917 119.24979,522 189.84323,522 H 386.15677 C 456.75021,522 464,514.75001 464,444.01294 V 298 151.98706 C 464,81.249993 456.75021,74 386.15677,74 Z"
     style="color:#000000;display:inline;overflow:visible;visibility:visible;opacity:0.3;fill:url(#linearGradient4358);fill-opacity:1;fill-rule:nonzero;stroke:none;stroke-width:2;marker:none;filter:url(#filter4380);enable-background:accumulate"
     transform="matrix(0.13228516,0,0,0.13228516,-4.4094514,-6.0388816)" />
  <path
     style="color:#000000;display:inline;overflow:visible;visibility:visible;opacity:0.1;fill:#000000;fill-opacity:1;fill-rule:nonzero;stroke:none;stroke-width:0.26993784;marker:none;enable-background:accumulate"
     d="m 20.410313,2.9565094 c -9.550674,0 -10.5783158,0.976306 -10.5315075,10.5007546 V 33.117525 52.777787 C 9.8319975,62.302236 10.859639,63.27854 20.410313,63.27854 h 26.559505 c 9.550673,0 10.531507,-0.976193 10.531507,-10.500753 V 33.117525 13.457264 c 0,-9.5245616 -0.980834,-10.5007546 -10.531507,-10.5007546 z"
     id="rect4158-7"
     inkscape:connector-curvature="0"
     sodipodi:nodetypes="scccssscsss" />
  <path
     style="color:#000000;display:inline;overflow:visible;visibility:visible;fill:url(#linearGradient4226);fill-opacity:1;fill-rule:nonzero;stroke:none;stroke-width:0.26457033;marker:none;enable-background:accumulate"
     d="m 46.671928,3.4856504 c 9.338467,0 10.343273,0.959177 10.297505,10.3165306 V 33.117525 52.432869 C 57.015203,61.790224 56.010395,62.7494 46.671928,62.7494 H 20.702563 c -9.338464,0 -10.297505,-0.959068 -10.297505,-10.316531 V 33.117525 13.802181 c 0,-9.3574646 0.959041,-10.3165306 10.297505,-10.3165306 z"
     id="rect4158"
     inkscape:connector-curvature="0"
     sodipodi:nodetypes="scccssscsss" />
  <path
     style="color:#000000;display:inline;overflow:visible;visibility:visible;opacity:1;fill:#ffffff;fill-opacity:1;fill-rule:nonzero;stroke:none;stroke-width:0.26457033;marker:none;enable-background:accumulate"
     d="M 56.969311,48.993294 43.213205,62.7494 h 3.458535 c 9.338467,0 10.343339,-0.959337 10.297571,-10.316692 z"
     id="rect4158-6"
     inkscape:connector-curvature="0" />
  <path
     style="color:#000000;display:inline;overflow:visible;visibility:visible;opacity:0.3;fill:#ffffff;fill-opacity:1;fill-rule:nonzero;stroke:none;stroke-width:0.26457033;marker:none;enable-background:accumulate"
     d="m 20.70406,3.4856504 c -9.338466,0 -10.343342,0.959339 -10.297574,10.3166916 v 0.529141 C 10.360718,4.9741304 11.365594,4.0147904 20.70406,4.0147904 h 25.969228 c 9.338467,0 10.297574,0.959228 10.297574,10.3166926 v -0.529141 c 0,-9.3574636 -0.959107,-10.3166916 -10.297574,-10.3166916 z"
     id="path931"
     inkscape:connector-curvature="0" />
  <path
     style="color:#000000;display:inline;overflow:visible;visibility:visible;opacity:0.2;fill:#000000;fill-opacity:1;fill-rule:nonzero;stroke:none;stroke-width:0.26457033;marker:none;enable-background:accumulate"
     d="m 20.705489,62.7494 c -9.338468,0 -10.343344,-0.95934 -10.297576,-10.316692 v -0.529141 c -0.04577,9.357352 0.959108,10.316692 10.297576,10.316692 h 25.969227 c 9.338467,0 10.297574,-0.959229 10.297574,-10.316692 v 0.529141 c 0,9.357463 -0.959107,10.316692 -10.297574,10.316692 z"
     id="path931-8"
     inkscape:connector-curvature="0" />
  <path
     style="color:#000000;display:inline;overflow:visible;visibility:visible;opacity:0.2;fill:#ffffff;fill-opacity:1;fill-rule:nonzero;stroke:none;stroke-width:0.26457033;marker:none;enable-background:accumulate"
     d="M 33.688674,3.4856504 V 62.7494 H 46.67174 c 9.338467,0 10.343339,-0.959337 10.297571,-10.316692 V 33.117525 13.802342 C 57.015079,4.4449894 56.010207,3.4856504 46.67174,3.4856504 Z"
     id="rect4158-3"
     inkscape:connector-curvature="0" />
  <path
     style="color:#000000;display:inline;overflow:visible;visibility:visible;opacity:0.2;fill:#ffffff;fill-opacity:1;fill-rule:nonzero;stroke:none;stroke-width:0.26457033;marker:none;enable-background:accumulate"
     d="m 10.404936,33.117525 v 19.315183 c 0,9.357463 0.959109,10.316692 10.297574,10.316692 h 25.96923 c 9.338467,0 10.343339,-0.959337 10.297571,-10.316692 V 33.117525 Z"
     id="rect4158-8"
     inkscape:connector-curvature="0" />
  <path
     style="display:inline;fill:none;fill-rule:evenodd;stroke:#5d5d5d;stroke-width:1.0582813;stroke-linecap:square;stroke-linejoin:miter;stroke-miterlimit:4;stroke-dasharray:none;stroke-opacity:1;enable-background:new"
     d="m 10.931493,37.87979 h 3.708118 l 6.349688,-16.932499 8.46625,26.457031 5.291406,-15.874219 2.116563,6.349687 2.116562,5.820547 2.116563,-5.820547 h 15.343028"
     id="path925"
     inkscape:connector-curvature="0"
     sodipodi:nodetypes="ccccccccc" />
</svg>
